!!!!SEGMENT: Fsc2022-Regina_celi.krn
!!!id: Fsc2022
!!!AGN: Motet
!!!SCT: Seay (1977)
!!!voices: 6
!!!COM: Costanzo Festa
!!!OTL: Regina celi
**kern	**kern	**kern	**kern	**kern	**kern
*part6	*part5	*part4	*part3	*part2	*part1
*staff6	*staff5	*staff4	*staff3	*staff2	*staff1
*I"Bassus II	*I"Bassus I	*I"Tenor II	*I"Tenor I	*I"Altus	*I"Superius
*I'B. II	*I'B. I	*I'T. II	*I'T. I	*I'A	*I'S
*clefF4	*clefF4	*clefGv2	*clefGv2	*clefGv2	*clefG2
*k[b-]	*k[b-]	*k[b-]	*k[b-]	*k[b-]	*k[b-]
*F:	*F:	*F:	*F:	*F:	*F:
*M2/1	*M2/1	*M2/1	*M2/1	*M2/1	*M2/1
*met(C|)	*met(C|)	*met(C|)	*met(C|)	*met(C|)	*met(C|)
!!section: Prima pars: Regina celi
!!!OMD: Prima pars: Regina celi
=1	=1	=1	=1	=1	=1
0r	1r	0r	0F	0r	0r
.	1FF	.	.	.	.
=2	=2	=2	=2	=2	=2
1r	1C	0r	1G	0r	0r
1FF	2FF	.	1F	.	.
.	[2F	.	.	.	.
=3	=3	=3	=3	=3	=3
2C	2F]	0r	0G	0r	0r
2BB-y	4E	.	.	.	.
.	4D	.	.	.	.
1C	1E	.	.	.	.
=4	=4	=4	=4	=4	=4
0FF	1F	1r	0A	0c	0r
.	1r	1C	.	.	.
=5	=5	=5	=5	=5	=5
0r	2r	1G	0r	1d	0r
.	2G	.	.	.	.
.	2E	2C	.	1c	.
.	2F	[2c	.	.	.
=6	=6	=6	=6	=6	=6
0r	0D	2c]	0r	0d	0f
.	.	4Bni	.	.	.
.	.	4A	.	.	.
.	.	2.Bni	.	.	.
.	.	4A	.	.	.
=7	=7	=7	=7	=7	=7
2r	1C	1c	0r	1e	1g
2C	.	.	.	.	.
2AA	2FF	1r	.	2r	1f
2BB-y	[2F	.	.	[2d	.
=8	=8	=8	=8	=8	=8
0GG	2F]	1r	0r	4d]	0g
.	.	.	.	4c	.
.	4E	.	.	1B-y	.
.	4D	.	.	.	.
.	1E	1B-y	.	.	.
.	.	.	.	4A	.
.	.	.	.	4G	.
=9	=9	=9	=9	=9	=9
1FF	1F	0A	0F	1.c	0a
1F	1FF	.	.	.	.
.	.	.	.	2A	.
=10	=10	=10	=10	=10	=10
1E-X	1r	2.G	1G	2B-y	0r
.	.	.	.	2c	.
.	.	4A	.	.	.
1D	1F	4B-y	1F	1d	.
.	.	4A	.	.	.
.	.	[2d	.	.	.
=11	=11	=11	=11	=11	=11
1r	0E	2d]	0G	2G	0r
.	.	4c	.	1g	.
.	.	4B-y	.	.	.
1C	.	1c	.	.	.
.	.	.	.	4f	.
.	.	.	.	4e	.
=12	=12	=12	=12	=12	=12
1F	1D	2d	0A	1f	0r
.	.	2.f	.	.	.
2.D	[1F	.	.	1r	.
.	.	4e	.	.	.
.	.	2d	.	.	.
4E	.	.	.	.	.
=13	=13	=13	=13	=13	=13
2F	2F]	4d	0r	1r	0r
.	.	4c	.	.	.
1G	2E	1c	.	.	.
.	1D	.	.	1f	.
2F	.	2Bni	.	.	.
=14	=14	=14	=14	=14	=14
2G	4C	2c	0r	1e	1r
.	4D	.	.	.	.
2C	4E	4G	.	.	.
.	4F	4A	.	.	.
2GG	2G	4B-y	.	1d	1b-y
.	.	4c	.	.	.
2BB-y	[2F	4d	.	.	.
.	.	4B-y	.	.	.
=15	=15	=15	=15	=15	=15
4FF	4F]	0c	0r	1.f	1a
4GG	4E	.	.	.	.
4AA	2.C	.	.	.	.
4BB-y	.	.	.	.	.
1C	.	.	.	.	1g
.	4D	.	.	.	.
.	4E	.	.	2e	.
.	4F	.	.	.	.
=16	=16	=16	=16	=16	=16
1GG	2G	1B-y	0r	1d	1.b-y
.	2D	.	.	.	.
1r	2.F	1r	.	1c	.
.	.	.	.	.	2a
.	4E	.	.	.	.
=17	=17	=17	=17	=17	=17
1BB-y	1D	1B-y	0F	0r	4d
.	.	.	.	.	4e
.	.	.	.	.	4f
.	.	.	.	.	4g
1AA	1C	2c	.	.	4a
.	.	.	.	.	4b-y
.	.	2A	.	.	2cc
=18	=18	=18	=18	=18	=18
1GG	1.D	1.B-y	1G	0r	2.b-y
.	.	.	.	.	8aL
.	.	.	.	.	8gJ
[1BB-y	.	.	1F	.	[1dd
.	2C	2A	.	.	.
=19	=19	=19	=19	=19	=19
2BB-]	0BB-y	2G	0G	1r	2dd]
2AA	.	1F	.	.	2cc
1GG	.	.	.	2r	1b-y
.	.	2E	.	2G	.
=20	=20	=20	=20	=20	=20
0FF	1C	1F	0A	1c	0a
.	1r	2r	.	2d	.
.	.	2F	.	[2c	.
=21	=21	=21	=21	=21	=21
0r	0r	1c	0r	2c]	1r
.	.	.	.	2A	.
.	.	1d	.	1B-y	1f
=22	=22	=22	=22	=22	=22
0r	1r	2c	0r	2A	1cc
.	.	2A	.	2a	.
.	1BB-y	1B-y	.	2.f	1dd
.	.	.	.	4g	.
=23	=23	=23	=23	=23	=23
0r	1F	1A	0r	4a	2cc
.	.	.	.	4g	.
.	.	.	.	4f	2a
.	.	.	.	4e	.
.	1G	2r	.	2d	1b-y
.	.	2G	.	[2e	.
=24	=24	=24	=24	=24	=24
0r	2F	2c	0r	4e]	2a
.	.	.	.	4d	.
.	2D	2F	.	1d	1b-y
.	1E	1G	.	.	.
.	.	.	.	2c#i	4a
.	.	.	.	.	4g
=25	=25	=25	=25	=25	=25
1r	1D	2.A	0F	1d	2.f
.	.	4B-y	.	.	4g
1FF	1r	2c	.	2r	1a
.	.	[2d	.	2f	.
=26	=26	=26	=26	=26	=26
1C	1r	4d]	1G	2g	1g
.	.	4c	.	.	.
.	.	1c	.	2e	.
1D	1F	.	1F	1d	2r
.	.	2Bni	.	.	2f
=27	=27	=27	=27	=27	=27
2.C	1E	1c	0G	1e	1cc
4C	.	.	.	.	.
1BB-y	1D	1r	.	1r	1dd
=28	=28	=28	=28	=28	=28
0AA	1E	2r	0A	0r	2.cc
.	.	2C	.	.	.
.	.	.	.	.	4b-y
.	1r	2c	.	.	4a
.	.	.	.	.	4b-y
.	.	2c	.	.	4cc
.	.	.	.	.	4a
=29	=29	=29	=29	=29	=29
0r	0r	2d	0r	1f	2b-y
.	.	2A	.	.	1a
.	.	1B-y	.	1d	.
.	.	.	.	.	2g
=30	=30	=30	=30	=30	=30
0r	1F	0A	0r	1.f	0a
.	1D	.	.	.	.
.	.	.	.	4e	.
.	.	.	.	4d	.
=31	=31	=31	=31	=31	=31
0r	1F	1r	0r	1c	1f
.	1G	1B-y	.	2r	1d
.	.	.	.	[2g	.
=32	=32	=32	=32	=32	=32
0r	0C	1G	0r	4g]	2.e
.	.	.	.	4f	.
.	.	.	.	4e	.
.	.	.	.	4d	4f
.	.	[1c	.	1e	2g
.	.	.	.	.	[2a
=33	=33	=33	=33	=33	=33
0r	0D	2c]	0F	0f	2a]
.	.	4Bni	.	.	2d
.	.	4A	.	.	.
.	.	1Bni	.	.	1dd
=34	=34	=34	=34	=34	=34
1r	1C	1c	1G	1e	2.g
.	.	.	.	.	4a
1BB-y	2r	1r	1F	[1d	4b-y
.	.	.	.	.	4cc
.	2D	.	.	.	[2dd
=35	=35	=35	=35	=35	=35
2.GG	2.D	2r	0G	1d]	4dd]
.	.	.	.	.	4cc
.	.	1B-y	.	.	4b-y
4AA	4C	.	.	.	4a
2BB-y	2D	.	.	1r	1g
2C	2E	2G	.	.	.
=36	=36	=36	=36	=36	=36
0FF	0F	2.c	0A	1r	1f
.	.	4B-y	.	.	.
.	.	4A	.	1f	2r
.	.	4G	.	.	.
.	.	[2F	.	.	2cc
=37	=37	=37	=37	=37	=37
0GG	2r	2F]	0r	1d	2b-y
.	1B-y	4E	.	.	2g
.	.	4D	.	.	.
.	.	1E	.	1g	1b-y
.	2G	.	.	.	.
=38	=38	=38	=38	=38	=38
0FF	1c	1F	0r	2c	[0a
.	.	.	.	2A	.
.	1F	2r	.	4c	.
.	.	.	.	4B-y	.
.	.	2c	.	4A	.
.	.	.	.	4G	.
=39	=39	=39	=39	=39	=39
1r	2r	4A	0r	2F	1a]
.	.	4B-y	.	.	.
.	1F	4c	.	2f	.
.	.	4A	.	.	.
1BB-y	.	2.B-y	.	1d	2r
.	[2D	.	.	.	[2b-y
.	.	4c	.	.	.
=40	=40	=40	=40	=40	=40
1GG	2D]	2d	0r	1g	2b-]
.	1G	2B-y	.	.	1g
1C	.	[1c	.	1e	.
.	[2C	.	.	.	[2cc
=41	=41	=41	=41	=41	=41
1FF	2C]	1c]	0F	1f	2cc]
.	1F	.	.	.	1f
1BB-y	.	1B-y	.	[1d	.
.	[2D	.	.	.	[2b-y
=42	=42	=42	=42	=42	=42
2GG	2D]	2B-y	1G	2d]	2b-]
2C	1C	1c	.	2e	2g
2FF	.	.	1F	1f	2a
2FF	[2c	2C	.	.	[2f
=43	=43	=43	=43	=43	=43
1C	2c]	0E	0G	1r	2f]
.	4B-y	.	.	.	4e
.	4A	.	.	.	4d
1C	1G	.	.	[1cl	1e
=	=	=	=	=	=
00FF	00F	00C	00A	00c]	00f
=||	=||	=||	=||	=||	=||
*M2/1	*M2/1	*M2/1	*M2/1	*M2/1	*M2/1
*met(C|)	*met(C|)	*met(C|)	*met(C|)	*met(C|)	*met(C|)
!!section: Secunda pars: Resurrexit sicut dixit
!!!OMD: Secunda pars: Resurrexit sicut dixit
0r	0r	1r	0r	0r	0f
.	.	[1B-y	.	.	.
=44	=44	=44	=44	=44	=44
0r	1r	1B-]	0r	0r	1g
.	[1F	1c	.	.	[1a
=45	=45	=45	=45	=45	=45
0r	1F]	0d	0r	1r	1a]
.	1G	.	.	1B-y	[1g
=46	=46	=46	=46	=46	=46
0r	0A	1c	0r	0c	2g]
.	.	.	.	.	4f#i
.	.	.	.	.	4e
.	.	1r	.	.	1f#i
=47	=47	=47	=47	=47	=47
0r	0G	0r	0B-y	0d	0g
=48	=48	=48	=48	=48	=48
1r	0r	0F	1c	2c	0r
.	.	.	.	2.f	.
[1BB-y	.	.	[1d	.	.
.	.	.	.	4e	.
.	.	.	.	4d	.
.	.	.	.	4c	.
=49	=49	=49	=49	=49	=49
1BB-]	0r	1G	1d]	1B-y	0r
1C	.	[1A	[1c	1r	.
=50	=50	=50	=50	=50	=50
0D	0r	1A]	1c]	1r	1.f
.	.	1F	1B-y	1d	.
.	.	.	.	.	2g
=51	=51	=51	=51	=51	=51
0C	0r	2r	0c	2.e	2a
.	.	2.c	.	.	2g
.	.	.	.	4f	.
.	.	.	.	2g	[1cc
.	.	4d	.	.	.
.	.	2e	.	2c	.
=52	=52	=52	=52	=52	=52
0r	1F	1f	0r	2A	2cc]
.	.	.	.	2.a	4b-y
.	.	.	.	.	4a
.	1G	1d	.	.	1b-y
.	.	.	.	4g	.
.	.	.	.	[2g	.
=53	=53	=53	=53	=53	=53
0r	0A	1.c	0r	2g]	1cc
.	.	.	.	4f#i	.
.	.	.	.	4e	.
.	.	.	.	1f#i	2r
.	.	2d	.	.	[2cc
=54	=54	=54	=54	=54	=54
0r	1G	2e	0r	1g	2cc]
.	.	4d	.	.	4b-y
.	.	4c	.	.	4a
.	1G	1d	.	2r	1b-y
.	.	.	.	[2g	.
=55	=55	=55	=55	=55	=55
1C	1.C	1c	0r	2g]	1cc
.	.	.	.	1c	.
1FF	.	1r	.	.	1a
.	[2F	.	.	2d	.
=56	=56	=56	=56	=56	=56
0GG	2F]	1r	0B-y	2B-y	1b-y
.	4E	.	.	1d	.
.	4D	.	.	.	.
.	4F	1G	.	.	1g
.	4E	.	.	.	.
.	4E	.	.	4c	.
.	4D	.	.	4B-y	.
=57	=57	=57	=57	=57	=57
1FF	1F	2C	1c	0A	2r
.	.	2F	.	.	2cc
1r	1r	1D	[1d	.	1f
=58	=58	=58	=58	=58	=58
0r	1G	1B-y	1d]	2r	0g
.	.	.	.	2d	.
.	1C	2G	[1c	4e	.
.	.	.	.	4d	.
.	.	2c	.	4c	.
.	.	.	.	4B-y	.
=59	=59	=59	=59	=59	=59
0r	0D	0F	1c]	1A	4f
.	.	.	.	.	4g
.	.	.	.	.	4a
.	.	.	.	.	4f
.	.	.	1B-y	1d	4b-y
.	.	.	.	.	4a
.	.	.	.	.	4g
.	.	.	.	.	4f
=60	=60	=60	=60	=60	=60
0r	0C	0G	0c	2G	2e
.	.	.	.	2.c	1f
.	.	.	.	4B-y	.
.	.	.	.	2G	2e
=61	=61	=61	=61	=61	=61
0r	0r	1F	0r	1A	0f
.	.	1B-y	.	1d	.
=62	=62	=62	=62	=62	=62
0r	0r	2.G	0r	2.d	1b-y
.	.	4A	.	4c	.
.	.	2B-y	.	2d	1g
.	.	2c	.	2e	.
=63	=63	=63	=63	=63	=63
1BB-y	0r	2F	0r	2d	1f
.	.	2.B-y	.	2f	.
2.GG	.	.	.	2e	[1b-y
.	.	4A	.	.	.
.	.	4G	.	[2d	.
4AA	.	4F	.	.	.
=64	=64	=64	=64	=64	=64
2BB-y	0r	1G	0r	2d]	2b-]
2C	.	.	.	2.c	2g
2FF	.	2F	.	.	2a
.	.	.	.	4A	.
[2BB-y	.	[2D	.	2d	2f
=65	=65	=65	=65	=65	=65
4BB-]	0r	4D]	0B-y	2B-y	2g
4AA	.	4E	.	.	.
4GG	.	2.F	.	1d	2a
4FF	.	.	.	.	.
1GG	.	.	.	.	1b-y
.	.	4E	.	.	.
.	.	4E	.	2G	.
.	.	4D	.	.	.
=66	=66	=66	=66	=66	=66
1FF	2r	1F	1c	2r	2a
.	2F	.	.	2c	2cc
1r	2.D	1r	[1d	[1f	2b-y
.	.	.	.	.	[2a
.	4E	.	.	.	.
=67	=67	=67	=67	=67	=67
0r	2F	0r	1d]	2f]	2a]
.	2G	.	.	2d	2.g
.	2C	.	[1c	2e	.
.	.	.	.	.	4e
.	[2F	.	.	[2f	[2a
=68	=68	=68	=68	=68	=68
0r	4F]	0r	1c]	2f]	4a]
.	4E	.	.	.	4g
.	4D	.	.	2.F	4f
.	4C	.	.	.	4e
.	1D	.	1B-y	.	[1f
.	.	.	.	4E	.
.	.	.	.	4F	.
.	.	.	.	4G	.
=69	=69	=69	=69	=69	=69
1r	0C	0r	0c	2A	2f]
.	.	.	.	4G	4e
.	.	.	.	4F	4d
1C	.	.	.	1G	1e
=70	=70	=70	=70	=70	=70
1FF	1r	1c	0r	2.F	2f
.	.	.	.	.	1cc
.	.	.	.	4G	.
1r	1c	1F	.	4A	.
.	.	.	.	4B-y	.
.	.	.	.	4c	2f
.	.	.	.	4d	.
=71	=71	=71	=71	=71	=71
1C	1C	1r	0r	4e	1g
.	.	.	.	4f	.
.	.	.	.	4g	.
.	.	.	.	4e	.
1FF	1r	1c	.	2.f	[1a
.	.	.	.	4g	.
=72	=72	=72	=72	=72	=72
1r	1c	1F	0r	1a	2a]
.	.	.	.	.	4g
.	.	.	.	.	4f
1C	2C	1G	.	1g	1e
.	2E	.	.	.	.
=73	=73	=73	=73	=73	=73
2.FF	2F	2.A	0r	2r	0cc
.	2F	.	.	1c	.
4GG	.	8GL	.	.	.
.	.	8FJ	.	.	.
2AA	1C	2E	.	.	.
2FF	.	[2F	.	2A	.
=74	=74	=74	=74	=74	=74
0GG	2G	2F]	0B-y	1d	1b-y
.	2r	4E	.	.	.
.	.	4D	.	.	.
.	1G	2E	.	1B-y	1g
.	.	2D	.	.	.
=75	=75	=75	=75	=75	=75
1FF	1C	1F	1c	2A	0a
.	.	.	.	2.f	.
1r	1r	1D	[1d	.	.
.	.	.	.	4e	.
.	.	.	.	4d	.
.	.	.	.	4c	.
=76	=76	=76	=76	=76	=76
0r	1G	1r	1d]	4B-y	1g
.	.	.	.	4G	.
.	.	.	.	2d	.
.	2.C	1G	[1c	[1e	2.g
.	4D	.	.	.	4f
=77	=77	=77	=77	=77	=77
0r	2E	2C	1c]	1e]	2g
.	2C	4r	.	.	1a
.	.	4c	.	.	.
.	1D	2.F	1B-y	1r	.
.	.	.	.	.	4g
.	.	4G	.	.	4f
=78	=78	=78	=78	=78	=78
0r	0C	2A	0c	1r	2e
.	.	2F	.	.	1f
.	.	1G	.	2r	.
.	.	.	.	2c	2e
=79	=79	=79	=79	=79	=79
0r	1r	0F	0r	2c	2f
.	.	.	.	2F	2f
.	2r	.	.	4A	2.f
.	.	.	.	4G	.
.	2F	.	.	4A	.
.	.	.	.	4B-y	4g
=80	=80	=80	=80	=80	=80
0r	2.F	1r	0r	0c	4a
.	.	.	.	.	4g
.	.	.	.	.	4a
.	4G	.	.	.	4b-y
.	4A	2r	.	.	1cc
.	4G	.	.	.	.
.	4A	2F	.	.	.
.	4B-y	.	.	.	.
=81	=81	=81	=81	=81	=81
2r	1c	2.F	0r	1r	0r
2FF	.	.	.	.	.
.	.	4G	.	.	.
2.FF	2r	4A	.	2r	.
.	.	4G	.	.	.
.	2C	4A	.	[2c	.
4GG	.	4B-y	.	.	.
=82	=82	=82	=82	=82	=82
4AA	2.C	0c	0r	4c]	1r
4GG	.	.	.	4B-y	.
4AA	.	.	.	2A	.
4BB-y	4D	.	.	.	.
1C	4E	.	.	2.G	2r
.	4D	.	.	.	.
.	4E	.	.	.	2cc
.	4F	.	.	4A	.
=83	=83	=83	=83	=83	=83
1GG	1G	0r	0B-y	4B-y	4dd
.	.	.	.	4c	4cc
.	.	.	.	2.d	4b-y
.	.	.	.	.	4a
1G	2r	.	.	.	2b-y
.	.	.	.	4c	.
.	2G	.	.	4d	2b-y
.	.	.	.	4e	.
=84	=84	=84	=84	=84	=84
2.F	4A	2r	1c	1f	1a
.	4B-y	.	.	.	.
.	4c	2.F	.	.	.
4E	4A	.	.	.	.
4D	2B-y	.	[1d	1r	1r
4C	.	4E	.	.	.
4BB-y	[2A	4D	.	.	.
4AA	.	4C	.	.	.
=85	=85	=85	=85	=85	=85
1BB-y	4A]	1D	1d]	1r	1r
.	8GL	.	.	.	.
.	8FJ	.	.	.	.
.	2G	.	.	.	.
1AA	[1A	1E	[1c	2r	2r
.	.	.	.	2e	[2cc
=86	=86	=86	=86	=86	=86
0r	2A]	0r	1c]	2c	4cc]
.	.	.	.	.	4b-y
.	4G	.	.	1f	2a
.	4F	.	.	.	.
.	1G	.	1B-y	.	4g
.	.	.	.	.	4a
.	.	.	.	2e	4b-y
.	.	.	.	.	4g
=87	=87	=87	=87	=87	=87
0r	1.F	0r	0c	1f	0a
.	.	.	.	2r	.
.	4E	.	.	[2f	.
.	4D	.	.	.	.
=88	=88	=88	=88	=88	=88
0r	1C	0r	0r	2f]	1cc
.	.	.	.	2e	.
.	2F	.	.	2f	2a
.	2E-X	.	.	[2g	[2b-y
=89	=89	=89	=89	=89	=89
0r	1D	1r	0r	4g]	4b-]
.	.	.	.	4f	4a
.	.	.	.	1f	4g
.	.	.	.	.	4f
.	1C	1c	.	.	1g
.	.	.	.	2e	.
=90	=90	=90	=90	=90	=90
0r	2D	2A	0r	2.d	2.f
.	2BB-y	2.B-y	.	.	.
.	.	.	.	4e	4e
.	1D	.	.	2f	4d
.	.	4A	.	.	4c
.	.	4G	.	2B-y	[2f
.	.	4F	.	.	.
=91	=91	=91	=91	=91	=91
1C	2C	1G	0r	1c	2f]
.	2G	.	.	.	2e
2AA	4A	1F	.	1r	1f
.	4G	.	.	.	.
[2BB-y	4F	.	.	.	.
.	4E	.	.	.	.
=92	=92	=92	=92	=92	=92
4BB-]	4D	0r	0B-y	1r	0r
4AA	4C	.	.	.	.
4GG	2.F	.	.	.	.
4FF	.	.	.	.	.
1GG	.	.	.	2r	.
.	4E	.	.	.	.
.	2D	.	.	2G	.
=93	=93	=93	=93	=93	=93
1FF	1F	0r	1c	4A	1cc
.	.	.	.	4F	.
.	.	.	.	2.f	.
1r	1r	.	[1d	.	2a
.	.	.	.	4e	.
.	.	.	.	4d	[2b-y
.	.	.	.	4c	.
=94	=94	=94	=94	=94	=94
0r	1G	0r	1d]	1B-y	4b-]
.	.	.	.	.	4a
.	.	.	.	.	4g
.	.	.	.	.	4f
.	2E	.	[1c	1c	2g
.	[2F	.	.	.	2a
=95	=95	=95	=95	=95	=95
0r	4F]	0r	1c]	2.A	2f
.	4E	.	.	.	.
.	4D	.	.	.	1a
.	4C	.	.	8GL	.
.	.	.	.	8FJ	.
.	1D	.	1B-y	2f	.
.	.	.	.	4e	4g
.	.	.	.	4d	4f
=96	=96	=96	=96	=96	=96
2r	1C	1r	0c	1g	0e
1C	.	.	.	.	.
.	1r	1G	.	1r	.
4BB-y	.	.	.	.	.
4AA	.	.	.	.	.
=97	=97	=97	=97	=97	=97
2GG	0r	1B-y	0r	1d	0r
2BB-y	.	.	.	.	.
4FF	.	1A	.	1f	.
4GG	.	.	.	.	.
4AA	.	.	.	.	.
4BB-y	.	.	.	.	.
=98	=98	=98	=98	=98	=98
1C	1r	0G	0r	1e-i	2r
.	.	.	.	.	2g
1GG	1D	.	.	2d	1b-y
.	.	.	.	2B-y	.
=99	=99	=99	=99	=99	=99
0r	1F	1r	0r	2c	1a
.	.	.	.	1d	.
.	1E	1G	.	.	[1g
.	.	.	.	2c#i	.
=100	=100	=100	=100	=100	=100
0r	0D	1B-y	0r	[0d	2g]
.	.	.	.	.	4f#i
.	.	.	.	.	4e
.	.	1A	.	.	1f#i
=101	=101	=101	=101	=101	=101
1GG	1r	1G	0B-y	0d]	2g
.	.	.	.	.	2.b-y
1BB-y	2r	2F	.	.	.
.	.	.	.	.	4cc
.	2D	2G	.	.	2dd
=102	=102	=102	=102	=102	=102
1AA	2E	1A	1c	0r	2cc
.	2C	.	.	.	2a
1GG	[1G	2D	[1d	.	2b-y
.	.	[2B-y	.	.	2g
=103	=103	=103	=103	=103	=103
2r	1G]	4B-]	1d]	1r	1b-y
.	.	4A	.	.	.
2GG	.	4G	.	.	.
.	.	4F	.	.	.
2AA	2r	2E	[1c	2r	1a
2FF	2C	2F	.	2f	.
=104	=104	=104	=104	=104	=104
1C	2E	1G	1c]	2e	2.g
.	2C	.	.	2e	.
.	.	.	.	.	4a
2r	1G	2r	1B-y	2d	4b-y
.	.	.	.	.	4cc
2GG	.	2B-y	.	[2g	2dd
=105	=105	=105	=105	=105	=105
2AA	2E	2A	[0cl	4g]	0cc
.	.	.	.	4f	.
2FF	2F	2.c	.	1f	.
1C	1G	.	.	.	.
.	.	4B-y	.	.	.
.	.	2G	.	2e	.
=106	=106	=106	=106	=106	=106
2r	1F	2A	0c_	1f	2a
2FF	.	2F	.	.	2.cc
2C	2E	2G	.	1r	.
.	.	.	.	.	4b-y
[2FF	2F	2A	.	.	[2a
=107	=107	=107	=107	=107	=107
4FF]	1A	1F	0c_	2r	4a]
4GG	.	.	.	.	4g
4AA	.	.	.	2c	1f
4BB-y	.	.	.	.	.
1C	1G	1C	.	2c	.
.	.	.	.	2G	2e
=108	=108	=108	=108	=108	=108
00FFl	00Fl	00Cl	00c]	00Al	00fl
==	==	==	==	==	==
*-	*-	*-	*-	*-	*-
!!!system-decoration: [*]
!!!RDF**kern: i = editorial accidental
!!!RDF**kern: l = terminal long
!!!ENC: Benjamin Ory
!!!END: 2021/7/20
!!!EED: Benjamin Ory
!!!EEV: 2021/07/20
!!!YEC: Copyright 2021 Benjamin Ory, All Rights Reserved
!!!ONB: Translated from MusicXML on 2021/07/20
